!!!COM: Music21
!!!OTL: mazurka_Valchiusella
!!!OMV: mazurka_Valchiusella
**kern
*clefG2
*k[]
*M3/4
=1
8.aL
16bJk
=||
4cc
8.ccL
16bJk
8.ccL
16ddJk
=
8.ccL
16bJk
4a
4cc
=
4ee
8eeL
8eeJ
8eeL
8eeJ
=
4ff
2ee
=
4a
4b
4ee
=
8.ddL
16ccJk
2b
=
8.eeL
16ffJk
8.eeL
16ddJk
8.ccL
16bJk
!!linebreak:original
=
4cc
4a
8.aL
16bJk
=
4cc
8.ccL
16bJk
8.ccL
16ddJk
=
8.ccL
16bJk
4a
4cc
=
4ee
8eeL
8eeJ
8eeL
8eeJ
=
4ff
2ee
=
4a
4b
4ee
=
8.ddL
16ccJk
2b
=
8.eeL
16ffJk
8.eeL
16ddJk
8.ccL
16bJk
!!linebreak:original
=
4a
4a
8.bL
16ccJk
=||
4cc
8.ccL
16bJk
8.ccL
16ddJk
=
8.ccL
16bJk
4a
4cc
=
4ee
8eeL
8eeJ
8eeL
8eeJ
=
4ff
2ee
=
4a
4b
4ee
=
8.ddL
16ccJk
2b
=
8.eeL
16ffJk
8.eeL
16ddJk
8.ccL
16bJk
!!linebreak:original
=
4cc
4a
8.aL
16bJk
=
4cc
8.ccL
16bJk
8.ccL
16ddJk
=
8.ccL
16bJk
4a
4cc
=
4ee
8eeL
8eeJ
8eeL
8eeJ
=
4ff
2ee
=
4a
4b
4ee
=
8.ddL
16ccJk
2b
=
8.eeL
16ffJk
8.eeL
16ddJk
8.ccL
16bJk
=
4a
2a
!!linebreak:original
=||
4aa
4aa
4gg
=
8.ffL
16eeJk
2dd
=
4dd
4ff
4aa
=
4gg
2ee
=
4a
4b
4ee
=
8.ddL
16ccJk
2b
=
8.eeL
16ffJk
8.eeL
16ddJk
8.ccL
16bJk
=
4cc
2a
=
4aa
4aa
4gg
=
8.ffL
16eeJk
2dd
!!linebreak:original
=
4dd
4ff
4aa
=
4gg
2ee
=
4a
4b
4ee
=
8.ddL
16ccJk
2b
=
8.eeL
16ffJk
8.eeL
16ddJk
8.ccL
16bJk
=
4a
2a
=||
4aa
4aa
4gg
=
8.ffL
16eeJk
2dd
=
4dd
4ff
4aa
=
4gg
2ee
!!linebreak:original
=
4a
4b
4ee
=
8.ddL
16ccJk
2b
=
8.eeL
16ffJk
8.eeL
16ddJk
8.ccL
16bJk
=
4cc
2a
=
4aa
4aa
4gg
=
8.ffL
16eeJk
2dd
=
4dd
4ff
4aa
=
4gg
2ee
=
4a
4b
4ee
=
8.ddL
16ccJk
2b
!!linebreak:original
=
8.eeL
16ffJk
8.eeL
16ddJk
8.ccL
16bJk
=
4a
2a
=||
*-
